images/logo_cnn_desktop.svg

<svg width="72" height="64" fill="none" xmlns="http://www.w3.org/2000/svg"><path d="M7.88898 32.6603c0 5.75 4.61082 10.4272 10.29482 10.4272h9.6166c.603 0 1.0726-.5748 1.0726-1.082V22.8977c.0005-.5804.2284-1.1369.6337-1.5473.4052-.4104.9546-.6413 1.5277-.6418.375-.0005.7437.0981 1.0697.2861.3259.188.5978.4589.7888.7858l12.0802 21.0958c.1029.1679.2568.2974.4386.3691.1818.0717.3816.0817.5695.0285.1879-.0533.3536-.1668.4723-.3236.1187-.1569.1839-.3485.1859-.546V22.8977c.0005-.5804.2284-1.1369.6336-1.5473.4053-.4104.9547-.6413 1.5278-.6418.375-.0005.7437.0981 1.0697.2861.3259.188.5978.4589.7887.7858l12.0682 21.0944c.1029.1678.2567.2973.4384.369.1818.0717.3815.0818.5694.0286.1878-.0531.3536-.1665.4723-.3232.1187-.1567.1841-.3482.1862-.5458V17.1133h-3.7901v15.0534L53.5137 19.809c-1.0023-1.7358-2.9034-2.8322-4.9272-2.8322-3.1693 0-5.7457 2.6045-5.7457 5.8146v9.3761l-7.09-12.3578c-1.0051-1.7351-2.9062-2.8307-4.9278-2.8307-3.1694 0-5.7458 2.6044-5.7458 5.8146v15.404c.0022.5604-.4142 1.049-1.02 1.0504h-5.845c-1.7252 0-3.3797-.6941-4.5996-1.9297-1.2199-1.2355-1.9052-2.9113-1.9052-4.6587 0-1.7473.6853-3.4231 1.9052-4.6587 1.2199-1.2355 2.8744-1.9297 4.5996-1.9297h4.8959v-3.8381H18.171c-5.6641 0-10.28202 4.6701-10.28202 10.4272ZM65.6549 17.1148V42.405c-.0006.5804-.2285 1.1369-.6337 1.5473-.4052.4105-.9546.6413-1.5277.6419-.375.0005-.7436-.098-1.0696-.2859-.3259-.1879-.5978-.4586-.7889-.7854L49.5654 22.4271c-.1028-.1678-.2566-.2973-.4384-.369-.1817-.0717-.3815-.0818-.5693-.0286-.1879.0531-.3536.1665-.4724.3232-.1187.1567-.184.3482-.1861.5458V42.405c-.0006.5804-.2285 1.1369-.6337 1.5473-.4052.4105-.9547.6413-1.5277.6419-.3758.0005-.7451-.0987-1.0712-.2878-.3261-.1891-.5976-.4614-.7873-.7899L31.7998 22.4271c-.154-.2658-.4554-.431-.7683-.431-.2379.0007-.4659.0968-.6342.2672-.1682.1704-.2631.4013-.2638.6423v19.0999c0 1.2573-1.091 2.3616-2.3352 2.3616h-9.6152c-3.0645-.003-6.0026-1.2374-8.1696-3.4322-2.16688-2.1948-3.38557-5.1707-3.38858-8.2746.00301-3.1039 1.2217-6.0798 3.38858-8.2745 2.167-2.1948 5.1051-3.4292 8.1696-3.4322h4.937v-3.8388h-4.9243c-8.47669 0-15.34888 6.9598-15.34888 15.5463 0 8.5864 6.86509 15.5463 15.34888 15.5463h9.7082c3.6773.0021 6.0423-2.1806 6.0295-6.2062v-8.8674l7.0899 12.3577c1.0023 1.7359 2.9034 2.8322 4.9272 2.8322 3.1694 0 5.7457-2.6044 5.7457-5.8138v-9.3761l7.09 12.3577c1.003 1.7359 2.9041 2.8322 4.9271 2.8322 3.1694 0 5.7458-2.6044 5.7458-5.8138V17.1148h-3.8043Z" fill="#fff"/></svg>

<svg width="72" height="64" viewBox="0 0 72 64" fill="none" xmlns="http://www.w3.org/2000/svg">
<path d="M7.88898 32.6603C7.88898 38.4103 12.4998 43.0875 18.1838 43.0875H27.8004C28.4034 43.0875 28.873 42.5127 28.873 42.0055V22.8977C28.8735 22.3173 29.1014 21.7608 29.5067 21.3504C29.9119 20.94 30.4613 20.7091 31.0344 20.7086C31.4094 20.7081 31.7781 20.8067 32.1041 20.9947C32.43 21.1827 32.7019 21.4536 32.8929 21.7805L44.9731 42.8763C45.076 43.0442 45.2299 43.1737 45.4117 43.2454C45.5935 43.3171 45.7933 43.3271 45.9812 43.2739C46.1691 43.2206 46.3348 43.1071 46.4535 42.9503C46.5722 42.7934 46.6374 42.6018 46.6394 42.4043V22.8977C46.6399 22.3173 46.8678 21.7608 47.273 21.3504C47.6783 20.94 48.2277 20.7091 48.8008 20.7086C49.1758 20.7081 49.5445 20.8067 49.8705 20.9947C50.1964 21.1827 50.4683 21.4536 50.6592 21.7805L62.7274 42.8749C62.8303 43.0427 62.9841 43.1722 63.1658 43.2439C63.3476 43.3156 63.5473 43.3257 63.7352 43.2725C63.923 43.2194 64.0888 43.106 64.2075 42.9493C64.3262 42.7926 64.3916 42.6011 64.3937 42.4035V17.1133H60.6036V32.1667L53.5137 19.809C52.5114 18.0732 50.6103 16.9768 48.5865 16.9768C45.4172 16.9768 42.8408 19.5813 42.8408 22.7914V32.1675L35.7508 19.8097C34.7457 18.0746 32.8446 16.979 30.823 16.979C27.6536 16.979 25.0772 19.5834 25.0772 22.7936V38.1976C25.0794 38.758 24.663 39.2466 24.0572 39.248H18.2122C16.487 39.248 14.8325 38.5539 13.6126 37.3183C12.3927 36.0828 11.7074 34.407 11.7074 32.6596C11.7074 30.9123 12.3927 29.2365 13.6126 28.0009C14.8325 26.7654 16.487 26.0712 18.2122 26.0712H23.1081V22.2331H18.171C12.5069 22.2331 7.88898 26.9032 7.88898 32.6603ZM65.6549 17.1148V42.405C65.6543 42.9854 65.4264 43.5419 65.0212 43.9523C64.616 44.3628 64.0666 44.5936 63.4935 44.5942C63.1185 44.5947 62.7499 44.4962 62.4239 44.3083C62.098 44.1204 61.8261 43.8497 61.635 43.5229L49.5654 22.4271C49.4626 22.2593 49.3088 22.1298 49.127 22.0581C48.9453 21.9864 48.7455 21.9763 48.5577 22.0295C48.3698 22.0826 48.2041 22.196 48.0853 22.3527C47.9666 22.5094 47.9013 22.7009 47.8992 22.8985V42.405C47.8986 42.9854 47.6707 43.5419 47.2655 43.9523C46.8603 44.3628 46.3108 44.5936 45.7378 44.5942C45.362 44.5947 44.9927 44.4955 44.6666 44.3064C44.3405 44.1173 44.069 43.845 43.8793 43.5165L31.7998 22.4271C31.6458 22.1613 31.3444 21.9961 31.0315 21.9961C30.7936 21.9968 30.5656 22.0929 30.3973 22.2633C30.2291 22.4337 30.1342 22.6646 30.1335 22.9056V42.0055C30.1335 43.2628 29.0425 44.3671 27.7983 44.3671H18.1831C15.1186 44.3641 12.1805 43.1297 10.0135 40.9349C7.84662 38.7401 6.62793 35.7642 6.62492 32.6603C6.62793 29.5564 7.84662 26.5805 10.0135 24.3858C12.1805 22.191 15.1186 20.9566 18.1831 20.9536H23.1201V17.1148H18.1958C9.71911 17.1148 2.84692 24.0746 2.84692 32.6611C2.84692 41.2475 9.71201 48.2074 18.1958 48.2074H27.904C31.5813 48.2095 33.9463 46.0268 33.9335 42.0012V33.1338L41.0234 45.4915C42.0257 47.2274 43.9268 48.3237 45.9506 48.3237C49.12 48.3237 51.6963 45.7193 51.6963 42.5099V33.1338L58.7863 45.4915C59.7893 47.2274 61.6904 48.3237 63.7134 48.3237C66.8828 48.3237 69.4592 45.7193 69.4592 42.5099V17.1148H65.6549Z" fill="white"/>
</svg>
